X: 1
T: Mi Chamocha   [Em]
S: Jewish liturgical
O: Exodus 15:1-18
L: 1/4
M: 4/4
K: Em
|:\
"Em"e B e B | z/ e f/ g/f/ e | "D"d A d A | z/ d e/ f/e/ d/e/ |
w: Mi cha-mo-cha, mi cha-mo - cha, mi cha-mo-cha, mi cha-mo - cha,
w: Mi cha-mo-cha, ne-dar ba-ko-desh, mi cha-mo-cha, ne dar-ba-ko-desh.
"Em"e B e B | z/ e f/ g/f/ e | "D"f f g f |1 "Em"e4 :|2 "Em"e3 ||
w: Mi cha-mo-cha, mi cha-mo - cha ba'e-lim A-do-nai
w: Mi cha-mo-cha, ne-dar ba-ko-desh \- \- \- \- | | \-
|: e/g/ | "Am"a3 b/a/ | "Em"g3 a/g/ | "D"f3 g/f/ |1 "Em"e f g :|2 "Em"e3 z |]
w: No - ra t'hi - lot o - seh fe - leh. | \-leh.


